X:1
T:Lesson 7 - Can, Can
C:Jacques Offenbach
M:C
K:D
L:1/4
vD D E/G/F/E/|A A A/B/F/G/|E E E/G/F/E/|D/d/c/B/ A/G/F/E/|
D D E/G/F/E/|A A A/B/F/G/|E E E/G/F/E/|D/A/E/F/ D z1:|]
